X:1
T:Title
%%score { ( 1 3 ) | ( 2 4 ) }
L:1/8
M:6/8
K:Ab
V:1 treble nm="Grand Piano"
V:3 treble 
V:2 bass 
V:4 bass 
V:1
 z3 z2[Q:1/4=75] [CE] | [CA][CG][CE] F2 G | AcA e2 A/B/ | cAc edc | [GB]3- [GB]2 [DE] | %5
 [CA][CG][CE] [CF]2 [B,EG] | [A,EA][EB][Ec] [Fd]2 [Fd]/[Fd]/ | cBA BFG | [CA]6 | [Bd][Gd]d d3 | %10
 c[Ac][Fc] [Ec]2 [CA] | [Ec][DB][CA] [=DF][DG][DA] | c B2- B2 E | [CA][CG][EA] B2 B | %14
[M:7/8] cBA [Ff]3 [Fd] |[M:3/4] cB A[Ae] [Gd][Ac] |[M:5/8] B3 [A,CA]2 |] %17
V:2
 z3 z2 [A,,A,] | [A,,A,][A,,A,][A,,A,] [A,C]2 G, | A,CA, [E,E]2[K:treble] [A,C]/[A,DA]/ | %3
 [A,EA][A,C][A,EA] [CEA][B,EG][A,EA] | [E,E]3- [E,E]2 [E,G,] | [A,,A,][A,,A,][A,,A,] A,2 E,/D,/ | %6
 C,[B,,G,][A,,A,] [D,A,]2 [D,A,]/[D,A,]/ | [E,A,E][E,G,D][E,A,C] [E,G,D][E,A,D][E,B,D] | [A,,A,]6 | %9
 [E,G,][E,G,][F,A,F] [G,B,E]3 | [A,E][E,A,][C,A,] [A,,A,]2 [A,,A,] | %11
 [A,,A,][A,,A,][A,,A,] [B,,A,][B,,A,][B,,A,] | [E,A,E] [E,G,E]2- [E,G,E]2 [E,G,D] | %13
 [A,,A,][A,,A,][C,A,] [E,G,E]2 [E,G,E] |[M:7/8][K:treble] [A,_G][A,G][A,G][K:bass] [D,A,]3 [D,A,] | %15
[M:3/4] [E,A,E][E,G,D] [E,A,C][E,C] [E,B,][E,A,] |[M:5/8] z2 D A,,2 |] %17
V:3
 x6 | x6 | x6 | x6 | x6 | x6 | x6 | x6 | x6 | x6 | x6 | x6 | x6 | x6 |[M:7/8] x7 |[M:3/4] x6 | %16
[M:5/8] E2 z z2 |] %17
V:4
 x6 | x6 | x5[K:treble] x | x6 | x6 | x6 | x6 | x6 | x6 | x6 | x6 | x6 | x6 | x6 | %14
[M:7/8][K:treble] x3[K:bass] x4 |[M:3/4] x6 |[M:5/8] [E,G,]3 z2 |] %17

